X: 16508
T: Hairy Dogleaf, The
R: reel
M: 4/4
K: Dmajor
|:D3 B ADFA|AB B2 BAFE|D3 B ADFA|dBAF EGFE|
D3 B ADFA|AB B2 BAFE|AB B2 BAFA|1 dBAF EGFE:|2 dBAF Egfe||
|:d3 f edef|AB B2 BAFA|d3 f edef|ag (3fga g2 fe|
d3 f edef|AB B2 BAFA|AB B2 BAFA|1 dBAF Egfe:|2 dBAF EGFE||

